src/standard/objects/podium-presentation.svg

<svg xmlns="http://www.w3.org/2000/svg" viewBox="0 0 36 36">
  <path d="M29 31.62a.62.62 0 0 0 0-1.24h-4.38V16.62H27a.62.62 0 0 0 .62-.62v-6a.62.62 0 0 0-.62-.62h-2.38V6a.62.62 0 0 0-.62-.62h-2.5a1.63 1.63 0 0 0-1.5-1h-4a1.62 1.62 0 1 0 0 3.24h4a1.63 1.63 0 0 0 1.5-1h1.88v2.76H9a.62.62 0 0 0-.62.62v6a.62.62 0 0 0 .62.62h2.38v13.76H7a.62.62 0 1 0 0 1.24ZM20 6.38h-4a.38.38 0 1 1 0-.76h4a.38.38 0 1 1 0 .76Zm-10.38 9v-4.76h16.76v4.76Zm3 15V16.62h10.76v13.76Z"/>
</svg>

<svg id="b1fa7252-a5ea-48e5-ac06-1afe67eb1fa1" data-name="Icon" xmlns="http://www.w3.org/2000/svg" viewBox="0 0 36 36">
  <path d="M29,31.62a.62.62,0,0,0,0-1.24H24.62V16.62H27a.62.62,0,0,0,.62-.62V10A.62.62,0,0,0,27,9.38H24.62V6A.62.62,0,0,0,24,5.38H21.5a1.63,1.63,0,0,0-1.5-1H16a1.62,1.62,0,1,0,0,3.24h4a1.63,1.63,0,0,0,1.5-1h1.88V9.38H9a.62.62,0,0,0-.62.62v6a.62.62,0,0,0,.62.62h2.38V30.38H7a.62.62,0,1,0,0,1.24ZM20,6.38H16a.38.38,0,1,1,0-.76h4a.38.38,0,1,1,0,.76Zm-10.38,9V10.62H26.38v4.76Zm3,15V16.62H23.38V30.38Z"/>
</svg>
